video-wireless-outline.svg

<svg fill="currentColor" viewBox="0 0 24 24"><path d="M15 12v8H5v-8zm1-2H4a1 1 0 0 0-1 1v10a1 1 0 0 0 1 1h12a1 1 0 0 0 1-1v-3.5l4 4v-11l-4 4V11a1 1 0 0 0-1-1M3 3.86l1.4 1.38c3.1-3.05 8.1-3.05 11.2 0L17 3.86C13.14.05 6.87.05 3 3.86m2.8 2.77L7.2 8c1.55-1.5 4.05-1.5 5.6 0l1.4-1.37c-2.32-2.29-6.08-2.29-8.4 0"/></svg>

<svg  viewBox="0 0 24 24" fill="currentColor"><path  d="M15,12V20H5V12H15M16,10H4A1,1 0 0,0 3,11V21A1,1 0 0,0 4,22H16A1,1 0 0,0 17,21V17.5L21,21.5V10.5L17,14.5V11A1,1 0 0,0 16,10M3,3.86L4.4,5.24C7.5,2.19 12.5,2.19 15.6,5.24L17,3.86C13.14,0.05 6.87,0.05 3,3.86M5.8,6.63L7.2,8C8.75,6.5 11.25,6.5 12.8,8L14.2,6.63C11.88,4.34 8.12,4.34 5.8,6.63Z"/></svg>
